X:234
T:Reel 234
M:4/4
K:Gmaj
L:1/8
 (3DEF |G2BG dGBG|FDAD BDAD|G2BG dGBd|egfa g2ba|gdBG dGBG|FDAD BDAD|G2BG dGBd|egfa g2g2|gdBd edBd|gabg fdef|gdBd edBd|egfa g2g2|gabg eddf|cBcd edef|gfge dBGB|dcAB G2|
